assets/icons/uE031-users.svg

<svg xmlns="http://www.w3.org/2000/svg" width="896" height="1232" viewBox="0 0 896 1232"><path d="M773 471q56 27 89.5 78.5T896 663v233q0 23-16.5 39.5T840 952H56q-23 0-39.5-16.5T0 896V671q0-79 46.5-143T167 435q-47-27-75-74T64 259q0-84 59.5-143.5T267 56t143.5 59.5T470 259q0 56-28 103t-75 74q80 31 124 100 33-42 80-65-42-26-66.5-69T480 308q0-79 56-135t136-56 136 56 56 135q0 51-24.5 94T773 471zM120 259q0 61 43 104t104 43 104-43 43-104-43-104-104-43-104 43-43 104zm356 637V671q0-82-61.5-140T266 473t-148.5 58T56 671v225h420zm60-588q0 56 40 96t96 40 96-40 40-96-40-95.5-96-39.5-96 39.5-40 95.5zm304 588V663q0-66-49-112.5T672 504t-119 46.5T504 663v233h336z"/></svg>

<?xml version="1.0" encoding="UTF-8" standalone="no"?><svg   xmlns:svg="http://www.w3.org/2000/svg"   xmlns="http://www.w3.org/2000/svg"   version="1.1"   width="896"   height="1232"   viewBox="0 0 896 1232">  <path     d="M773 471Q829 498 862.5 549.5T896 663V896Q896 919 879.5 935.5T840 952H56Q33 952 16.5 935.5T0 896V671Q0 592 46.5 528T167 435Q120 408 92 361T64 259Q64 175 123.5 115.5T267 56T410.5 115.5T470 259Q470 315 442 362T367 436Q447 467 491 536Q524 494 571 471Q529 445 504.5 402T480 308Q480 229 536 173T672 117T808 173T864 308Q864 359 839.5 402T773 471zM120 259Q120 320 163 363T267 406T371 363T414 259T371 155T267 112T163 155T120 259zM476 896V671Q476 589 414.5 531T266 473T117.5 531T56 671V896H476zM536 308Q536 364 576 404T672 444T768 404T808 308T768 212.5T672 173T576 212.5T536 308zM840 896V663Q840 597 791 550.5T672 504T553 550.5T504 663V896H840z"     id="icon368" /></svg>
